src/assets/icons/svg/homeTheater.svg

<?xml version="1.0" encoding="UTF-8"?>
<svg version="1.1" viewBox="0 0 167 140" xmlns="http://www.w3.org/2000/svg">
<g fill="none" fill-rule="evenodd">
<g transform="translate(-1014 -965)" fill="#000" fill-rule="nonzero">
<g transform="translate(1014 965)">
<path id="Shape" d="m112.9 93.476c-7.304-1.216-14.963 1.392-19.659 7.132-1.562 1.916-1.216 4.694 0.524 6.086 1.916 1.563 4.695 1.216 6.088-0.523 2.786-3.3 7.135-4.87 11.308-4.17 4.348 0.692 7.828 3.654 9.39 7.825 0.694 1.739 2.263 2.785 4.173 2.785 0.523 0 1.046-0.177 1.563-0.347 2.262-0.869 3.479-3.3 2.609-5.563-2.596-6.962-8.514-12.01-15.996-13.225zm17.751-10.088c0.87 0.177 1.563 0.177 2.433 0.177 4.002 0 8.005-1.74 10.614-5.04 1.563-1.916 1.216-4.694-0.693-6.087-1.916-1.562-4.696-1.216-6.089 0.693-1.046 1.393-2.955 2.085-4.695 1.74-1.74-0.347-3.303-1.563-3.826-3.302-0.87-2.262-3.302-3.478-5.565-2.609-2.263 0.87-3.48 3.302-2.61 5.564 1.557 4.693 5.56 7.995 10.431 8.864z"/>
<path id="a" d="m163.52 51.218c-21.052-8.872-43.835-13.735-66.627-14.781l-5.912-32.517c-0.346-2.085-2.086-3.477-4.001-3.654-28.358-1.386-57.23 3.655-83.501 14.78-1.74 0.7-2.956 2.786-2.61 4.701l7.136 40.865c1.393 7.826 4.172 15.304 8.52 22.083 8.175 13.219 22.439 21.045 37.749 21.045 2.61 0 5.219-0.177 7.828-0.693 2.263-0.347 4.526-1.046 6.612-1.74 0.177 1.047 0.177 2.086 0.523 3.132 3.65 18.077 17.742 31.64 35.662 34.772 2.609 0.523 5.218 0.693 7.828 0.693 15.133 0 29.395-7.825 37.747-21.045 4.172-6.779 7.135-14.258 8.521-22.082l7.135-40.865c0.347-1.91-0.87-3.994-2.61-4.694h2e-3 -2e-3zm-102.98 43.302c-14.44 2.608-28.881-3.825-36.532-16.343-3.656-5.91-6.089-12.173-7.305-18.951l-6.612-37.57c23.139-9.217 48.016-13.564 72.885-12.864l6.612 37.387c1.217 6.779 1.047 13.565-0.346 20.343-2.956 14.435-14.264 25.392-28.703 28v-1e-3l1e-3 -1e-3zm89.758 0.693c-1.216 6.779-3.656 13.218-7.305 18.95-7.828 12.52-22.09 18.951-36.53 16.344-14.441-2.608-25.748-13.565-28.704-27.823-0.347-1.74-0.693-3.478-0.87-5.217 8.352-4.87 14.787-12.35 18.612-21.39 1.393 0.869 2.956 1.392 4.526 1.738 0.87 0.177 1.563 0.177 2.432 0.177 4.003 0 8.005-1.74 10.615-5.04 1.563-1.916 1.216-4.694-0.694-6.087-1.916-1.562-4.695-1.215-6.088 0.693-1.047 1.393-2.956 2.086-4.696 1.74-1.393-0.177-2.609-1.217-3.302-2.432 1.393-7.133 1.393-14.435 0.177-21.56 20.005 1.046 40.01 5.217 58.453 12.52l-6.626 37.387z"/>
<path d="m46.445 44.093c1.916-1.562 2.086-4.347 0.523-6.086-3.302-3.824-8.174-5.563-12.87-4.694-4.872 0.87-8.874 4.348-10.614 8.872-0.87 2.262 0.347 4.693 2.61 5.563 0.523 0.177 1.046 0.177 1.392 0.177 1.8765-0.0017933 3.5482-1.1856 4.173-2.955 0.523-1.74 2.086-2.955 3.825-3.132 1.74-0.346 3.656 0.347 4.696 1.74 1.57 1.901 4.356 2.078 6.265 0.515zm18.265-16.173c-4.871 0.869-8.874 4.347-10.613 8.87-0.87 2.263 0.346 4.695 2.609 5.564 0.523 0.177 1.046 0.177 1.393 0.177 1.8761-0.0022166 3.5473-1.186 4.172-2.955 0.523-1.739 2.086-2.955 3.826-3.132 1.74-0.346 3.656 0.347 4.695 1.74 1.563 1.915 4.35 2.085 6.089 0.522 1.916-1.562 2.086-4.347 0.523-6.086-3.126-3.83-7.821-5.57-12.693-4.7h-1e-3zm5.92 28.692c-2.262-0.87-4.695 0.346-5.565 2.608-1.393 4.001-4.872 6.956-9.22 7.826-4.35 0.692-8.699-0.87-11.485-4.171-1.563-1.916-4.349-2.085-6.088-0.523-1.917 1.562-2.087 4.347-0.524 6.086 4.003 4.87 9.745 7.479 15.833 7.479 1.217 0 2.433-0.177 3.656-0.346 7.305-1.216 13.57-6.433 16.003-13.389 0.87-2.269-0.353-4.7-2.61-5.57z"/>
</g>
</g>
</g>
</svg>

<?xml version="1.0" encoding="UTF-8"?>
<svg width="167px" height="140px" viewBox="0 0 167 140" version="1.1" xmlns="http://www.w3.org/2000/svg" xmlns:xlink="http://www.w3.org/1999/xlink">
    <!-- Generator: Sketch 61 (89581) - https://sketch.com -->
    <title>np-drama-2952596-000000-copy-2</title>
    <desc>Created with Sketch.</desc>
    <g id="MVP" stroke="none" stroke-width="1" fill="none" fill-rule="evenodd">
        <g id="Etusivu-landing-01-Copy-5" transform="translate(-1014.000000, -965.000000)" fill="#000000" fill-rule="nonzero">
            <g id="np-drama-2952596-000000-copy-2" transform="translate(1014.000000, 965.000000)">
                <path d="M112.895,93.476 C105.591,92.26 97.932,94.868 93.236,100.608 C91.674,102.524 92.02,105.302 93.76,106.694 C95.676,108.257 98.455,107.91 99.848,106.171 C102.634,102.871 106.983,101.301 111.156,102.001 C115.504,102.693 118.984,105.655 120.546,109.826 C121.24,111.565 122.809,112.611 124.719,112.611 C125.242,112.611 125.765,112.434 126.282,112.264 C128.544,111.395 129.761,108.964 128.891,106.701 C126.295,99.739 120.377,94.691 112.895,93.476 L112.895,93.476 Z M130.646,83.388 C131.516,83.565 132.209,83.565 133.079,83.565 C137.081,83.565 141.084,81.825 143.693,78.525 C145.256,76.609 144.909,73.831 143,72.438 C141.084,70.876 138.304,71.222 136.911,73.131 C135.865,74.524 133.956,75.216 132.216,74.871 C130.476,74.524 128.913,73.308 128.39,71.569 C127.52,69.307 125.088,68.091 122.825,68.96 C120.562,69.83 119.345,72.262 120.215,74.524 C121.772,79.217 125.775,82.519 130.646,83.388 Z" id="Shape"></path>
                <path d="M163.52,51.218 C142.468,42.346 119.685,37.483 96.893,36.437 L90.981,3.92 C90.635,1.835 88.895,0.443 86.98,0.266 C58.622,-1.12 29.75,3.921 3.479,15.046 C1.739,15.746 0.523,17.832 0.869,19.747 L8.005,60.612 C9.398,68.438 12.177,75.916 16.525,82.695 C24.7,95.914 38.964,103.74 54.274,103.74 C56.884,103.74 59.493,103.563 62.102,103.047 C64.365,102.7 66.628,102.001 68.714,101.307 C68.891,102.354 68.891,103.393 69.237,104.439 C72.887,122.516 86.979,136.079 104.899,139.211 C107.508,139.734 110.117,139.904 112.727,139.904 C127.86,139.904 142.122,132.079 150.474,118.859 C154.646,112.08 157.609,104.601 158.995,96.777 L166.13,55.912 C166.477,54.002 165.26,51.918 163.52,51.218 L163.522,51.218 L163.52,51.218 Z M60.54,94.52 C46.1,97.128 31.659,90.695 24.008,78.177 C20.352,72.267 17.919,66.004 16.703,59.226 L10.091,21.656 C33.23,12.439 58.107,8.092 82.976,8.792 L89.588,46.179 C90.805,52.958 90.635,59.744 89.242,66.522 C86.286,80.957 74.978,91.914 60.539,94.522 L60.539,94.521 L60.54,94.52 Z M150.298,95.213 C149.082,101.992 146.642,108.431 142.993,114.163 C135.165,126.683 120.903,133.114 106.463,130.507 C92.022,127.899 80.715,116.942 77.759,102.684 C77.412,100.944 77.066,99.206 76.889,97.467 C85.241,92.597 91.676,85.117 95.501,76.077 C96.894,76.946 98.457,77.469 100.027,77.815 C100.897,77.992 101.59,77.992 102.459,77.992 C106.462,77.992 110.464,76.252 113.074,72.952 C114.637,71.036 114.29,68.258 112.38,66.865 C110.464,65.303 107.685,65.65 106.292,67.558 C105.245,68.951 103.336,69.644 101.596,69.298 C100.203,69.121 98.987,68.081 98.294,66.866 C99.687,59.733 99.687,52.431 98.471,45.306 C118.476,46.352 138.481,50.523 156.924,57.826 L150.298,95.213 L150.298,95.213 Z" id="Shape"></path>
                <path d="M46.445,44.093 C48.361,42.531 48.531,39.746 46.968,38.007 C43.666,34.183 38.794,32.444 34.098,33.313 C29.226,34.183 25.224,37.661 23.484,42.185 C22.614,44.447 23.831,46.878 26.094,47.748 C26.617,47.925 27.14,47.925 27.486,47.925 C29.3624536,47.9232067 31.034222,46.739388 31.659,44.97 C32.182,43.23 33.745,42.015 35.484,41.838 C37.224,41.492 39.14,42.185 40.18,43.578 C41.75,45.479 44.536,45.656 46.445,44.093 L46.445,44.093 Z M64.71,27.92 C59.839,28.789 55.836,32.267 54.097,36.79 C53.227,39.053 54.443,41.485 56.706,42.354 C57.229,42.531 57.752,42.531 58.099,42.531 C59.9750864,42.5287834 61.6463446,41.3450424 62.271,39.576 C62.794,37.837 64.357,36.621 66.097,36.444 C67.837,36.098 69.753,36.791 70.792,38.184 C72.355,40.099 75.142,40.269 76.881,38.706 C78.797,37.144 78.967,34.359 77.404,32.62 C74.278,28.79 69.583,27.05 64.711,27.92 L64.71,27.92 Z M70.63,56.612 C68.368,55.742 65.935,56.958 65.065,59.22 C63.672,63.221 60.193,66.176 55.845,67.046 C51.495,67.738 47.146,66.176 44.36,62.875 C42.797,60.959 40.011,60.79 38.272,62.352 C36.355,63.914 36.185,66.699 37.748,68.438 C41.751,73.308 47.493,75.917 53.581,75.917 C54.798,75.917 56.014,75.74 57.237,75.571 C64.542,74.355 70.807,69.138 73.24,62.182 C74.11,59.913 72.887,57.482 70.63,56.612 L70.63,56.612 Z" id="Shape"></path>
            </g>
        </g>
    </g>
</svg>
